X: 17908
T: Hour Before Dawn, The
R: reel
M: 4/4
K: Dmajor
|:dBBA ~B3c|dBBA F2EA|~D3E F~A3|B/c/dec decd|
BFBc dBde|f2fe decA|GABG FGAF|1 edcA edef:|2 EDEF E3F||
~G3 A ~B3 c|ABce a2 ab|f2ec decd|B/c/dfa fecA|
~G3 A ~B3 c|ABce abfe|f2ec decd|B/c/dfa fecA|
~G3 A ~B3 c|ABce a2 ab|f2 ec decd|B/c/dfa fdef|
g2 fd ef (e2|e)ddc BA B/c/d|g2fd ef(a2|a)bfa fedc||

